public/svgs/technologies/nuxt.svg

<svg fill="none" height="78" viewBox="0 0 414 78" width="414" pointer-events="none" xmlns="http://www.w3.org/2000/svg"><title id="title" lang="en">Nuxt</title><g fill="#fff"><path d="m144.516 17.7285h12.162l25.776 42.0486v-42.0486h11.227v59.581h-12.08l-25.858-41.9613v41.9613h-11.227z"/><path d="m243.864 77.3095h-10.462v-6.6553c-2.382 4.6837-7.229 7.3208-13.351 7.3208-9.698 0-15.995-6.9797-15.995-17.0249v-26.542h10.462v24.3457c0 5.8733 3.575 9.9579 8.933 9.9579 5.869 0 9.951-4.5962 9.951-10.8938v-23.4098h10.462z"/><path d="m280.272 77.3095-10.038-14.3005-10.039 14.3005h-11.143l15.483-22.3866-14.291-20.5148h11.398l8.592 12.3455 8.504-12.3455h11.485l-14.378 20.5148 15.484 22.3866z"/><path d="m312.593 21.472v12.9361h11.908v8.7683h-11.908v21.2967c0 .7153.283 1.4013.788 1.9074.505.5062 1.19.7911 1.905.7922h9.215v10.1201h-6.891c-9.357 0-15.48-5.449-15.48-14.9743v-19.1338h-8.421v-8.7766h5.283c2.465 0 3.899-1.4683 3.899-3.8975v-9.0386z"/><path d="m350.876 63.816v-46.0875h11.223v42.556c0 11.4928-5.529 17.025-14.885 17.025h-13.065v-10.1201h13.356c.894 0 1.751-.3555 2.383-.9881.633-.6326.988-1.4906.988-2.3853z"/><path d="m368.822 57.3064h10.807c.598 6.6552 5.021 10.8938 12.166 10.8938 6.381 0 10.808-2.5498 10.808-7.8282 0-12.7698-32.007-3.9183-32.007-26.7291.009-9.7874 8.43-16.5882 20.53-16.5882 12.591 0 21.095 7.2334 21.615 18.3851h-10.749c-.508-5.1911-4.573-8.6809-10.887-8.6809-5.869 0-9.527 2.7244-9.527 6.8923 0 13.194 32.422 3.3276 32.422 26.5585 0 11.0644-9.103 17.7903-22.201 17.7903-13.525 0-22.371-8.1734-22.965-20.6853"/><path d="m64.3666 77.2305h42.6514c1.355.0001 2.685-.3567 3.859-1.0346 1.173-.6779 2.147-1.6529 2.824-2.8271s1.033-2.5061 1.033-3.8618c-.001-1.3556-.358-2.6872-1.036-3.8608l-28.6438-49.6481c-.677-1.1739-1.651-2.1488-2.8239-2.8265-1.1729-.6778-2.5035-1.0347-3.8579-1.0347-1.3545 0-2.685.3569-3.8579 1.0347-1.173.6777-2.1469 1.6526-2.8239 2.8265l-7.324 12.7032-14.3197-24.84069c-.6776-1.17382-1.6519-2.14853-2.8252-2.82619-1.1732-.677667-2.504-1.03442-3.8586-1.03442-1.3547 0-2.6855.356753-3.8587 1.03442-1.1733.67766-2.1476 1.65237-2.8252 2.82619l-35.64322 61.78559c-.678084 1.1736-1.03538984 2.5052-1.03597927 3.8608-.00058943 1.3557.35555827 2.6876 1.03261927 3.8618.67706 1.1742 1.65117 2.1492 2.82434 2.8271s2.50403 1.0347 3.85874 1.0346h26.7729c10.6078 0 18.4306-4.6629 23.8134-13.7598l13.0685-22.6486 6.9998-12.1208 21.0077 36.4083h-28.0075zm-30.3144-12.1334-18.6841-.0041 28.0074-48.5417 13.9747 24.2708-9.3566 16.2222c-3.5748 5.9024-7.6358 8.0528-13.9414 8.0528z"/></g></svg>

<svg width="414" height="78" viewBox="0 0 414 78" fill="none" xmlns="http://www.w3.org/2000/svg">
<path d="M144.516 17.7285H156.678L182.454 59.7771V17.7285H193.681V77.3095H181.601L155.743 35.3482V77.3095H144.516V17.7285Z" fill="#ffffff"/>
<path d="M243.864 77.3095H233.402V70.6542C231.02 75.3379 226.173 77.975 220.051 77.975C210.353 77.975 204.056 70.9953 204.056 60.9501V34.4081H214.518V58.7538C214.518 64.6271 218.093 68.7117 223.451 68.7117C229.32 68.7117 233.402 64.1155 233.402 57.8179V34.4081H243.864V77.3095Z" fill="#ffffff"/>
<path d="M280.272 77.3095L270.234 63.009L260.195 77.3095H249.052L264.535 54.9229L250.244 34.4081H261.642L270.234 46.7536L278.738 34.4081H290.223L275.845 54.9229L291.329 77.3095H280.272Z" fill="#ffffff"/>
<path d="M312.593 21.472V34.4081H324.501V43.1764H312.593V64.4731C312.593 65.1884 312.876 65.8744 313.381 66.3805C313.886 66.8867 314.571 67.1716 315.286 67.1727H324.501V77.2928H317.61C308.253 77.2928 302.13 71.8438 302.13 62.3185V43.1847H293.709V34.4081H298.992C301.457 34.4081 302.891 32.9398 302.891 30.5106V21.472H312.593Z" fill="#ffffff"/>
<path d="M350.876 63.816V17.7285H362.099V60.2845C362.099 71.7773 356.57 77.3095 347.214 77.3095H334.149V67.1894H347.505C348.399 67.1894 349.256 66.8339 349.888 66.2013C350.521 65.5687 350.876 64.7107 350.876 63.816Z" fill="#ffffff"/>
<path d="M368.822 57.3064H379.629C380.227 63.9616 384.65 68.2002 391.795 68.2002C398.176 68.2002 402.603 65.6504 402.603 60.372C402.603 47.6022 370.596 56.4537 370.596 33.6429C370.605 23.8555 379.026 17.0547 391.126 17.0547C403.717 17.0547 412.221 24.2881 412.741 35.4398H401.992C401.484 30.2487 397.419 26.7589 391.105 26.7589C385.236 26.7589 381.578 29.4833 381.578 33.6512C381.578 46.8452 414 36.9788 414 60.2097C414 71.2741 404.897 78 391.799 78C378.274 78 369.428 69.8266 368.834 57.3147" fill="#ffffff"/>
<path d="M64.3666 77.2305H107.018C108.373 77.2306 109.703 76.8738 110.877 76.1959C112.05 75.518 113.024 74.543 113.701 73.3688C114.378 72.1946 114.734 70.8627 114.734 69.507C114.733 68.1514 114.376 66.8198 113.698 65.6462L85.0542 15.9981C84.3772 14.8242 83.4032 13.8493 82.2303 13.1716C81.0574 12.4938 79.7268 12.1369 78.3724 12.1369C77.0179 12.1369 75.6874 12.4938 74.5145 13.1716C73.3415 13.8493 72.3676 14.8242 71.6906 15.9981L64.3666 28.7013L50.0469 3.86061C49.3693 2.68679 48.395 1.71208 47.2217 1.03442C46.0485 0.356753 44.7177 0 43.3631 0C42.0084 0 40.6776 0.356753 39.5044 1.03442C38.3311 1.71208 37.3568 2.68679 36.6792 3.86061L1.03598 65.6462C0.357896 66.8198 0.000590158 68.1514 7.30442e-07 69.507C-0.000588697 70.8627 0.355559 72.1946 1.03262 73.3688C1.70968 74.543 2.68379 75.518 3.85696 76.1959C5.03013 76.8738 6.36099 77.2306 7.7157 77.2305H34.4886C45.0964 77.2305 52.9192 72.5676 58.302 63.4707L71.3705 40.8221L78.3703 28.7013L99.378 65.1096H71.3705L64.3666 77.2305ZM34.0522 65.0971L15.3681 65.093L43.3755 16.5513L57.3502 40.8221L47.9936 57.0443C44.4188 62.9467 40.3578 65.0971 34.0522 65.0971Z" fill="#ffffff"/>
</svg>
